X: 40818
T: Train Journey North, The
R: hornpipe
M: 4/4
K: Gmajor
D/|G2 B>D G>BD>G|B>DG>B DG B2|c2 A>F D>FA>D|F<AD>F A>DB>A|
G2 B>D G>BD>G|B>DG>B DG B2|c2 A>F D>FA>D|1 F2 A>c B>GG3/2:|2 F2 A>c B>DG>B||
|:d2 B>G D2 B>D|G>Bd>B c>BA>B|c2 A>F D2 A>D|F<AD>c B>DG>B|
d2 B>G D2 B>D|G>Bd>B c>BA>B|c2 A>F D>FA>D|1 F2 A>c B>DG>B:|2 F2 A>c B>GG>D||
|:G2 B>D G>BD>G|G2 B>D G>BD>G|F2 A>D F2 A>D|G2 B>D G2 B>D|
G2 B>D G>BD>G|G2 B>D G>BD>G|F2 A>B c2 A>D|1 F2 A>c B>GG>D:|2 F2 A>c B>DG>B||
|:d2 B>G G2 d>B|c>BA>G F>GA>B|c2 A>F F2 A>D|G2 B>c d2 B>c|
d2 B>G G2 d>B|c>BA>G F>GA>B|c2 A>F D>FA>D|1 F2 A>c B>DG>B:|2 F2 A>c B>GG3/2||

